X: 42
%
U:~=!turn!
T: Blanchard's Hornpipe
T: Fisher's Hornpipe
C:
O:Scotland
B:Keith Norman MacDonald : "The Skye collection of the best reels & strathspeys extant" : 1887
Z:Ralph Palmer
R:Hornpipe
M:C
L:1/8
K:D
A(B/c/) | d>AF>A G>BA>G | F>AF>A G>BA>G | F>DF>D G>EG>E | F>DF>D E2 AB/d/ | d>AF>A G>BA>G |
F>DF>D G>BA>G | F>Ad>f g>ec>e d2 [F2d2] [F2d2] :: (cd) | e>cA>c e>cg>e | f>dA>d f>da>f |
e>cA>c e>cg>f | e>dc>B A2 FG/A/ | B>GE>G A>Fd>B | A>FD>F A>Fd>A | B>dc>B A>GF>E | D2 [F2d2] [F2d2] :|


